Yaru++/actions/16/draw-polygon-star.svg

<svg viewBox="0 0 24 24" xmlns="http://www.w3.org/2000/svg">
  <path d="m10 4-7 7.15625 3.875 6.84375h3.125l-.3125 2 4.3125-2.40625 4.3125 2.40625-.8125-5.0625 3.5-3.59375-4.84375-.75-2.15625-4.59375-.65625 1.40625zm0 1.25 2.9375 3-1.09375 2.34375-4.84375.75 3.5 3.59375-.34375 2.1875h-2.78125l-3.3125-5.8125zm4 2.5 1.625 3.46875 3.625.53125-2.625 2.6875.625 3.8125-3.25-1.78125-3.25 1.78125.625-3.8125-2.625-2.6875 3.625-.53125z" fill="#808080"/>
</svg>

<svg xmlns="http://www.w3.org/2000/svg" viewBox="0 0 24 24">
 <defs>
  <style id="current-color-scheme" type="text/css">
   .ColorScheme-Text { color:#808080; }
  </style>
 </defs>
 <path fill="#808080" class="ColorScheme-Text" d="M 10 4 L 3 11.15625 L 6.875 18 L 10 18 L 9.6875 20 L 14 17.59375 L 18.3125 20 L 17.5 14.9375 L 21 11.34375 L 16.15625 10.59375 L 14 6 L 13.34375 7.40625 L 10 4 z M 10 5.25 L 12.9375 8.25 L 11.84375 10.59375 L 7 11.34375 L 10.5 14.9375 L 10.15625 17.125 L 7.375 17.125 L 4.0625 11.3125 L 10 5.25 z M 14 7.75 L 15.625 11.21875 L 19.25 11.75 L 16.625 14.4375 L 17.25 18.25 L 14 16.46875 L 10.75 18.25 L 11.375 14.4375 L 8.75 11.75 L 12.375 11.21875 L 14 7.75 z"/>
</svg>
